packages/webapp/public/images/template-logos/notion.svg

<svg width="62" height="62" viewBox="0 0 62 62" fill="none" xmlns="http://www.w3.org/2000/svg">
<rect width="62" height="62" rx="10" fill="white"/>
<path fill-rule="evenodd" clip-rule="evenodd" d="M17.2452 16.8317C18.6067 17.9378 19.1174 17.8535 21.6741 17.6829L45.7768 16.2356C46.288 16.2356 45.8629 15.7256 45.6924 15.6409L41.6895 12.7471C40.9225 12.1516 39.9007 11.4696 37.9421 11.6402L14.6034 13.3425C13.7522 13.4269 13.5823 13.8524 13.9212 14.1935L17.2452 16.8317ZM18.6923 22.4488V47.8091C18.6923 49.1721 19.3734 49.682 20.9063 49.5977L47.3952 48.0649C48.9289 47.9806 49.0998 47.0431 49.0998 45.9359V20.7458C49.0998 19.6404 48.6745 19.0443 47.7357 19.1294L20.0545 20.7458C19.0329 20.8317 18.6923 21.3427 18.6923 22.4488ZM44.842 23.8092C45.0119 24.5759 44.842 25.3419 44.0739 25.4281L42.7977 25.6824V44.405C41.6895 45.0005 40.6677 45.341 39.8162 45.341C38.4529 45.341 38.1114 44.9152 37.0903 43.6394L28.7419 30.5335V43.2138L31.3836 43.8099C31.3836 43.8099 31.3836 45.341 29.2523 45.341L23.3766 45.6819C23.2059 45.341 23.3766 44.4907 23.9726 44.3204L25.5059 43.8954V27.1296L23.377 26.959C23.2063 26.1923 23.6315 25.0868 24.8248 25.001L31.1281 24.5762L39.8162 37.8527V26.1079L37.601 25.8537C37.431 24.9164 38.1114 24.2358 38.9633 24.1514L44.842 23.8092ZM12.6439 11.0448L36.9198 9.25705C39.901 9.00137 40.668 9.17265 42.5417 10.5337L50.2909 15.9803C51.5696 16.9169 51.9958 17.1718 51.9958 18.1928V48.0649C51.9958 49.937 51.3137 51.0442 48.9294 51.2136L20.7376 52.916C18.9477 53.0014 18.0958 52.7463 17.1585 51.5541L11.4518 44.1501C10.4294 42.7871 10.0042 41.7675 10.0042 40.5746V14.0223C10.0042 12.4914 10.6864 11.2143 12.6439 11.0448Z" fill="black"/>
</svg>

<svg xmlns="http://www.w3.org/2000/svg" width="62" height="62" fill="none"><rect width="62" height="62" rx="31" fill="#fff"/><path fill-rule="evenodd" d="M17.245 16.832c1.361 1.106 1.872 1.022 4.429.851l24.103-1.447c.511 0 .086-.51-.084-.595l-4.003-2.894c-.767-.595-1.789-1.277-3.747-1.107l-23.339 1.702c-.851.084-1.021.51-.682.851l3.324 2.638zm1.447 5.617v25.36c0 1.363.681 1.873 2.214 1.789l26.489-1.533c1.534-.084 1.705-1.022 1.705-2.129v-25.19c0-1.105-.425-1.701-1.364-1.616l-27.681 1.616c-1.022.086-1.362.597-1.362 1.703zm26.15 1.36c.17.767 0 1.533-.768 1.619l-1.276.254v18.723c-1.108.596-2.13.936-2.981.936-1.363 0-1.705-.426-2.726-1.702l-8.348-13.106v12.68l2.642.596s0 1.531-2.131 1.531l-5.876.341c-.171-.341 0-1.191.596-1.361l1.533-.425V27.13l-2.129-.171c-.171-.767.255-1.872 1.448-1.958l6.303-.425 8.688 13.276V26.108l-2.215-.254c-.17-.937.51-1.618 1.362-1.702l5.879-.342zM12.644 11.045L36.92 9.257c2.981-.256 3.748-.084 5.622 1.277l7.749 5.447c1.279.937 1.705 1.192 1.705 2.212v29.872c0 1.872-.682 2.979-3.066 3.149l-28.192 1.702c-1.79.085-2.642-.17-3.579-1.362l-5.707-7.404c-1.022-1.363-1.448-2.383-1.448-3.576V14.022c0-1.531.682-2.808 2.64-2.977z" fill="#000"/></svg>
